svg/fluentui-system-icons/ic_fluent_person_chat_16_regular.svg

<svg width="16" height="16" viewBox="0 0 16 16" fill="none" xmlns="http://www.w3.org/2000/svg">
<path d="M7.603 13.2674L7.38801 13.9735C4.61939 13.7293 3 11.8398 3 10V9.5C3 8.67157 3.67157 8 4.5 8H9.03937C8.64919 8.27476 8.30701 8.61312 8.02792 9H4.5C4.22386 9 4 9.22386 4 9.5V10C4 11.3383 5.24114 12.7848 7.48425 12.9782C7.52039 13.0763 7.56002 13.1728 7.603 13.2674ZM8 1.5C9.51878 1.5 10.75 2.73122 10.75 4.25C10.75 5.76878 9.51878 7 8 7C6.48122 7 5.25 5.76878 5.25 4.25C5.25 2.73122 6.48122 1.5 8 1.5ZM8 2.5C7.0335 2.5 6.25 3.2835 6.25 4.25C6.25 5.2165 7.0335 6 8 6C8.9665 6 9.75 5.2165 9.75 4.25C9.75 3.2835 8.9665 2.5 8 2.5ZM15 11.5C15 13.433 13.433 15 11.5 15C10.8843 15 10.3057 14.841 9.8031 14.5619L8.41131 14.9854C8.16778 15.0595 7.94015 14.8318 8.0143 14.5883L8.43803 13.1967C8.15894 12.6941 8 12.1156 8 11.5C8 9.567 9.567 8 11.5 8C13.433 8 15 9.567 15 11.5ZM10.5 10C10.2239 10 10 10.2239 10 10.5C10 10.7761 10.2239 11 10.5 11H12.5C12.7761 11 13 10.7761 13 10.5C13 10.2239 12.7761 10 12.5 10H10.5ZM10 12.5C10 12.7761 10.2239 13 10.5 13H11.5C11.7761 13 12 12.7761 12 12.5C12 12.2239 11.7761 12 11.5 12H10.5C10.2239 12 10 12.2239 10 12.5Z" fill="#212121"/>
</svg>

<svg xmlns="http://www.w3.org/2000/svg" width="16" height="16"><path d="m7.603 13.267-.215.707C4.619 13.729 3 11.84 3 10v-.5A1.5 1.5 0 0 1 4.5 8h4.54c-.39.275-.733.613-1.012 1H4.5a.5.5 0 0 0-.5.5v.5c0 1.338 1.241 2.785 3.484 2.978.036.098.076.195.119.29ZM8 1.5A2.75 2.75 0 1 1 8 7a2.75 2.75 0 0 1 0-5.5Zm0 1A1.75 1.75 0 1 0 8 6a1.75 1.75 0 0 0 0-3.5Zm7 9a3.5 3.5 0 0 1-5.197 3.062l-1.392.423a.318.318 0 0 1-.397-.397l.424-1.391A3.5 3.5 0 1 1 15 11.5ZM10.5 10a.5.5 0 0 0 0 1h2a.5.5 0 0 0 0-1h-2Zm-.5 2.5a.5.5 0 0 0 .5.5h1a.5.5 0 0 0 0-1h-1a.5.5 0 0 0-.5.5Z"/></svg>
